resources/svg/table-row-above.svg

<svg xmlns="http://www.w3.org/2000/svg" viewBox="0 0 14 14" fill="currentColor"><path d="M12,8 L12,2 L11,2 C10.4477153,2 10,1.55228475 10,1 C10,0.44771525 10.4477153,0 11,0 L12,0 C13.1045695,0 14,0.8954305 14,2 L14,12 C14,13.1045695 13.1045695,14 12,14 L2,14 C0.8954305,14 0,13.1045695 0,12 L0,2 C0,0.8954305 0.8954305,0 2,0 L3,0 C3.55228475,0 4,0.44771525 4,1 C4,1.55228475 3.55228475,2 3,2 L2,2 L2,8 L12,8 Z M12,10 L10,10 L10,12 L12,12 L12,10 Z M8,12 L8,10 L6,10 L6,12 L8,12 Z M4,12 L4,10 L2,10 L2,12 L4,12 Z M6,3 L6,2 C6,1.44771525 6.44771525,1 7,1 C7.55228475,1 8,1.44771525 8,2 L8,3 L9,3 C9.55228475,3 10,3.44771525 10,4 C10,4.55228475 9.55228475,5 9,5 L8,5 L8,6 C8,6.55228475 7.55228475,7 7,7 C6.44771525,7 6,6.55228475 6,6 L6,5 L5,5 C4.44771525,5 4,4.55228475 4,4 C4,3.44771525 4.44771525,3 5,3 L6,3 Z"/></svg>

<svg xmlns="http://www.w3.org/2000/svg" fill="currentColor" viewBox="0 0 14 14"><path d="M12 8V2h-1a1 1 0 0 1 0-2h1a2 2 0 0 1 2 2v10a2 2 0 0 1-2 2H2a2 2 0 0 1-2-2V2a2 2 0 0 1 2-2h1a1 1 0 1 1 0 2H2v6h10Zm0 2h-2v2h2v-2Zm-4 2v-2H6v2h2Zm-4 0v-2H2v2h2Zm2-9V2a1 1 0 1 1 2 0v1h1a1 1 0 1 1 0 2H8v1a1 1 0 1 1-2 0V5H5a1 1 0 1 1 0-2h1Z"/></svg>
